static/img/kroki/502de16bfb3fd456a4f1055ff5a9f9ee.svg

<?xml version="1.0" encoding="us-ascii" standalone="no"?><svg xmlns="http://www.w3.org/2000/svg" xmlns:xlink="http://www.w3.org/1999/xlink" contentStyleType="text/css" height="784px" preserveAspectRatio="none" style="width:585px;height:784px;" version="1.1" viewBox="0 0 585 784" width="585px" zoomAndPan="magnify"><defs/><g><!--class azure_network_load_balancer_probe--><g id="elem_azure_network_load_balancer_probe"><rect codeLine="23" fill="#3D176E" height="39.7891" id="azure_network_load_balancer_probe" rx="2.5" ry="2.5" style="stroke:#000D19;stroke-width:0.5;" width="347" x="7" y="739.03"/><ellipse cx="22" cy="758.9245" fill="#ADD1B2" rx="11" ry="11" style="stroke:#181818;stroke-width:1.0;"/><path d="M24.9688,764.5652 Q24.3906,764.862 23.75,765.0027 Q23.1094,765.1589 22.4063,765.1589 Q19.9063,765.1589 18.5781,763.5183 Q17.2656,761.862 17.2656,758.737 Q17.2656,755.612 18.5781,753.9558 Q19.9063,752.2995 22.4063,752.2995 Q23.1094,752.2995 23.75,752.4558 Q24.4063,752.612 24.9688,752.9089 L24.9688,755.6277 Q24.3438,755.0495 23.75,754.7839 Q23.1563,754.5027 22.5313,754.5027 Q21.1875,754.5027 20.5,755.5808 Q19.8125,756.6433 19.8125,758.737 Q19.8125,760.8308 20.5,761.9089 Q21.1875,762.9714 22.5313,762.9714 Q23.1563,762.9714 23.75,762.7058 Q24.3438,762.4245 24.9688,761.8464 L24.9688,764.5652 Z " fill="#000000"/><text fill="#D9B8FF" font-family="Helvetica" font-size="17" lengthAdjust="spacing" textLength="305" x="41" y="764.8098">azure_network_load_balancer_probe</text></g><!--class gcp_health_check--><g id="elem_gcp_health_check"><rect codeLine="26" fill="#3D176E" height="39.7891" id="gcp_health_check" rx="2.5" ry="2.5" style="stroke:#000D19;stroke-width:0.5;" width="189" x="389" y="739.03"/><ellipse cx="404" cy="758.9245" fill="#ADD1B2" rx="11" ry="11" style="stroke:#181818;stroke-width:1.0;"/><path d="M406.9688,764.5652 Q406.3906,764.862 405.75,765.0027 Q405.1094,765.1589 404.4063,765.1589 Q401.9063,765.1589 400.5781,763.5183 Q399.2656,761.862 399.2656,758.737 Q399.2656,755.612 400.5781,753.9558 Q401.9063,752.2995 404.4063,752.2995 Q405.1094,752.2995 405.75,752.4558 Q406.4063,752.612 406.9688,752.9089 L406.9688,755.6277 Q406.3438,755.0495 405.75,754.7839 Q405.1563,754.5027 404.5313,754.5027 Q403.1875,754.5027 402.5,755.5808 Q401.8125,756.6433 401.8125,758.737 Q401.8125,760.8308 402.5,761.9089 Q403.1875,762.9714 404.5313,762.9714 Q405.1563,762.9714 405.75,762.7058 Q406.3438,762.4245 406.9688,761.8464 L406.9688,764.5652 Z " fill="#000000"/><text fill="#D9B8FF" font-family="Helvetica" font-size="17" lengthAdjust="spacing" textLength="147" x="423" y="764.8098">gcp_health_check</text></g><!--class health_check--><g id="elem_health_check"><rect codeLine="29" fill="#3D176E" height="179.2734" id="health_check" rx="2.5" ry="2.5" style="stroke:#000D19;stroke-width:0.5;" width="227" x="218" y="438.76"/><ellipse cx="267.25" cy="458.6545" fill="#ADD1B2" rx="11" ry="11" style="stroke:#181818;stroke-width:1.0;"/><path d="M270.2188,464.2952 Q269.6406,464.592 269,464.7327 Q268.3594,464.8889 267.6563,464.8889 Q265.1563,464.8889 263.8281,463.2483 Q262.5156,461.592 262.5156,458.467 Q262.5156,455.342 263.8281,453.6858 Q265.1563,452.0295 267.6563,452.0295 Q268.3594,452.0295 269,452.1858 Q269.6563,452.342 270.2188,452.6389 L270.2188,455.3577 Q269.5938,454.7795 269,454.5139 Q268.4063,454.2327 267.7813,454.2327 Q266.4375,454.2327 265.75,455.3108 Q265.0625,456.3733 265.0625,458.467 Q265.0625,460.5608 265.75,461.6389 Q266.4375,462.7014 267.7813,462.7014 Q268.4063,462.7014 269,462.4358 Q269.5938,462.1545 270.2188,461.5764 L270.2188,464.2952 Z " fill="#000000"/><text fill="#D9B8FF" font-family="Helvetica" font-size="17" lengthAdjust="spacing" textLength="110" x="292.75" y="464.5398">health_check</text><line style="stroke:#000D19;stroke-width:0.5;" x1="219" x2="444" y1="478.5491" y2="478.5491"/><text fill="#D9B8FF" font-family="sans-serif" font-size="14" font-weight="bold" lengthAdjust="spacing" textLength="113" x="229" y="500.5442">check_interval</text><text fill="#D9B8FF" font-family="sans-serif" font-size="14" lengthAdjust="spacing" textLength="44" x="342" y="500.5442">: int64</text><text fill="#D9B8FF" font-family="sans-serif" font-size="14" font-weight="bold" lengthAdjust="spacing" textLength="145" x="229" y="526.8411">health_check_type</text><text fill="#D9B8FF" font-family="sans-serif" font-size="14" lengthAdjust="spacing" textLength="48" x="374" y="526.8411">: string</text><text fill="#D9B8FF" font-family="sans-serif" font-size="14" font-weight="bold" lengthAdjust="spacing" textLength="141" x="229" y="553.1379">healthy_threshold</text><text fill="#D9B8FF" font-family="sans-serif" font-size="14" lengthAdjust="spacing" textLength="44" x="370" y="553.1379">: int64</text><text fill="#D9B8FF" font-family="sans-serif" font-size="14" font-weight="bold" lengthAdjust="spacing" textLength="60" x="229" y="579.4348">timeout</text><text fill="#D9B8FF" font-family="sans-serif" font-size="14" lengthAdjust="spacing" textLength="44" x="289" y="579.4348">: int64</text><text fill="#D9B8FF" font-family="sans-serif" font-size="14" font-weight="bold" lengthAdjust="spacing" textLength="161" x="229" y="605.7317">unhealthy_threshold</text><text fill="#D9B8FF" font-family="sans-serif" font-size="14" lengthAdjust="spacing" textLength="44" x="390" y="605.7317">: int64</text></g><!--class resource--><g id="elem_resource"><rect codeLine="36" fill="#3D176E" height="310.7578" id="resource" rx="2.5" ry="2.5" style="stroke:#000D19;stroke-width:0.5;" width="227" x="218" y="7"/><ellipse cx="286.75" cy="26.8945" fill="#ADD1B2" rx="11" ry="11" style="stroke:#181818;stroke-width:1.0;"/><path d="M289.7188,32.5352 Q289.1406,32.832 288.5,32.9727 Q287.8594,33.1289 287.1563,33.1289 Q284.6563,33.1289 283.3281,31.4883 Q282.0156,29.832 282.0156,26.707 Q282.0156,23.582 283.3281,21.9258 Q284.6563,20.2695 287.1563,20.2695 Q287.8594,20.2695 288.5,20.4258 Q289.1563,20.582 289.7188,20.8789 L289.7188,23.5977 Q289.0938,23.0195 288.5,22.7539 Q287.9063,22.4727 287.2813,22.4727 Q285.9375,22.4727 285.25,23.5508 Q284.5625,24.6133 284.5625,26.707 Q284.5625,28.8008 285.25,29.8789 Q285.9375,30.9414 287.2813,30.9414 Q287.9063,30.9414 288.5,30.6758 Q289.0938,30.3945 289.7188,29.8164 L289.7188,32.5352 Z " fill="#000000"/><text fill="#D9B8FF" font-family="Helvetica" font-size="17" lengthAdjust="spacing" textLength="71" x="312.25" y="32.7798">resource</text><line style="stroke:#000D19;stroke-width:0.5;" x1="219" x2="444" y1="46.7891" y2="46.7891"/><text fill="#D9B8FF" font-family="sans-serif" font-size="14" font-weight="bold" lengthAdjust="spacing" textLength="29" x="229" y="68.7842">age</text><text fill="#D9B8FF" font-family="sans-serif" font-size="14" lengthAdjust="spacing" textLength="66" x="258" y="68.7842">: duration</text><text fill="#D9B8FF" font-family="sans-serif" font-size="14" font-weight="bold" lengthAdjust="spacing" textLength="43" x="229" y="95.0811">atime</text><text fill="#D9B8FF" font-family="sans-serif" font-size="14" lengthAdjust="spacing" textLength="70" x="272" y="95.0811">: datetime</text><text fill="#D9B8FF" font-family="sans-serif" font-size="14" font-weight="bold" lengthAdjust="spacing" textLength="43" x="229" y="121.3779">ctime</text><text fill="#D9B8FF" font-family="sans-serif" font-size="14" lengthAdjust="spacing" textLength="70" x="272" y="121.3779">: datetime</text><text fill="#D9B8FF" font-family="sans-serif" font-size="14" font-weight="bold" lengthAdjust="spacing" textLength="14" x="229" y="147.6748">id</text><text fill="#D9B8FF" font-family="sans-serif" font-size="14" lengthAdjust="spacing" textLength="48" x="243" y="147.6748">: string</text><text fill="#D9B8FF" font-family="sans-serif" font-size="14" font-weight="bold" lengthAdjust="spacing" textLength="33" x="229" y="173.9717">kind</text><text fill="#D9B8FF" font-family="sans-serif" font-size="14" lengthAdjust="spacing" textLength="48" x="262" y="173.9717">: string</text><text fill="#D9B8FF" font-family="sans-serif" font-size="14" font-weight="bold" lengthAdjust="spacing" textLength="90" x="229" y="200.2686">last_access</text><text fill="#D9B8FF" font-family="sans-serif" font-size="14" lengthAdjust="spacing" textLength="66" x="319" y="200.2686">: duration</text><text fill="#D9B8FF" font-family="sans-serif" font-size="14" font-weight="bold" lengthAdjust="spacing" textLength="90" x="229" y="226.5654">last_update</text><text fill="#D9B8FF" font-family="sans-serif" font-size="14" lengthAdjust="spacing" textLength="66" x="319" y="226.5654">: duration</text><text fill="#D9B8FF" font-family="sans-serif" font-size="14" font-weight="bold" lengthAdjust="spacing" textLength="48" x="229" y="252.8623">mtime</text><text fill="#D9B8FF" font-family="sans-serif" font-size="14" lengthAdjust="spacing" textLength="70" x="277" y="252.8623">: datetime</text><text fill="#D9B8FF" font-family="sans-serif" font-size="14" font-weight="bold" lengthAdjust="spacing" textLength="43" x="229" y="279.1592">name</text><text fill="#D9B8FF" font-family="sans-serif" font-size="14" lengthAdjust="spacing" textLength="48" x="272" y="279.1592">: string</text><text fill="#D9B8FF" font-family="sans-serif" font-size="14" font-weight="bold" lengthAdjust="spacing" textLength="34" x="229" y="305.4561">tags</text><text fill="#D9B8FF" font-family="sans-serif" font-size="14" lengthAdjust="spacing" textLength="171" x="263" y="305.4561">: dictionary[string, string]</text></g><!--reverse link health_check to azure_network_load_balancer_probe--><g id="link_health_check_azure_network_load_balancer_probe"><path codeLine="48" d="M262.7664,633.4174 C233.4464,677.7874 210.53,712.48 193.04,738.94 " fill="none" id="health_check-backto-azure_network_load_balancer_probe" style="stroke:#FFAF37;stroke-width:2.0;"/><polygon fill="none" points="272.69,618.4,257.7606,630.1095,267.7722,636.7253,272.69,618.4" style="stroke:#FFAF37;stroke-width:2.0;"/></g><!--reverse link health_check to gcp_health_check--><g id="link_health_check_gcp_health_check"><path codeLine="49" d="M400.6682,633.3878 C430.1782,677.7578 453.28,712.48 470.87,738.94 " fill="none" id="health_check-backto-gcp_health_check" style="stroke:#FFAF37;stroke-width:2.0;"/><polygon fill="none" points="390.7,618.4,395.6723,636.7106,405.6642,630.0651,390.7,618.4" style="stroke:#FFAF37;stroke-width:2.0;"/></g><!--reverse link resource to health_check--><g id="link_resource_health_check"><path codeLine="50" d="M331.5,336.02 C331.5,377.07 331.5,402.02 331.5,438.26 " fill="none" id="resource-backto-health_check" style="stroke:#FFAF37;stroke-width:2.0;"/><polygon fill="none" points="331.5,318.02,325.5,336.02,337.5,336.02,331.5,318.02" style="stroke:#FFAF37;stroke-width:2.0;"/></g><!--SRC=[XPD1Rzim38Nl_XK2UWiM85ctfYbsQGCKswKOrjs6GQ0bsXPiImP5DqYt_VTPTXh8JfhSXFS-aO-KNHYD0kk6TwB6EaNoYI-DRO2W5lT4RhjnbIDnbMMGNQ-cvgEpV15uWXh5LwnUa8s2AV6pCAgqwBtu65aFeCgSN6lrK9u9hEyij1nHcmgylsScaxQCKHYzJc-pR4fEYrvTw-Ng1eymHnffZomM2xrSJv6BhSxEVI2UpIkAPRoq9yTu5FEeHK-TJHc8AEJHe6_-knc_WzR6vk9pfFqOCf556kdF1MYt3NG6bO_RU4P2nxi6DqTJuVfMPwkJyBVtu4I5rGbuRGcbHTuwAcNbGCiKAh0AIJRaKXH_akJV7ivL8mk4YWkf2bHbx4tqsQm_IMExA2zGpMPteZlVVEgS69KXP31zz-dP_E3k91U4ld2LZg-ogT6r74kjFNFZBLrdk9OKziaWxplgbe2Diq49TNiD6CCvv3-X6JsAskrxB7IzM89ItJyuwT0xRHDgJPpwH1yBzNWf3FbGqQXm3MZtQ_0-x9dVtQYZ9_ZoTpwVNtxUKvUcpvmSjZVu8-y_]--></g></svg>

<svg xmlns="http://www.w3.org/2000/svg" width="585" height="784" viewBox="0 0 585 784"><rect width="347" height="39.789" x="7" y="739.03" fill="#3D176E" rx="2.5" ry="2.5" style="stroke:#000d19;stroke-width:.5"/><circle cx="22" cy="758.924" r="11" fill="#ADD1B2" style="stroke:#181818;stroke-width:1"/><path d="M24.969 764.565q-.578.297-1.219.438-.64.156-1.344.156-2.5 0-3.828-1.64-1.312-1.657-1.312-4.782t1.312-4.781q1.328-1.657 3.828-1.657.703 0 1.344.157.656.156 1.219.453v2.719q-.625-.579-1.219-.844-.594-.281-1.219-.281-1.343 0-2.031 1.078-.687 1.062-.687 3.156t.687 3.172q.688 1.062 2.031 1.062.625 0 1.219-.265.594-.282 1.219-.86z"/><text x="41" y="764.81" fill="#D9B8FF" font-family="Helvetica" font-size="17" textLength="305">azure_network_load_balancer_probe</text><rect width="189" height="39.789" x="389" y="739.03" fill="#3D176E" rx="2.5" ry="2.5" style="stroke:#000d19;stroke-width:.5"/><circle cx="404" cy="758.924" r="11" fill="#ADD1B2" style="stroke:#181818;stroke-width:1"/><path d="M406.969 764.565q-.578.297-1.219.438-.64.156-1.344.156-2.5 0-3.828-1.64-1.312-1.657-1.312-4.782t1.312-4.781q1.328-1.657 3.828-1.657.703 0 1.344.157.656.156 1.219.453v2.719q-.625-.579-1.219-.844-.594-.281-1.219-.281-1.344 0-2.031 1.078-.687 1.062-.687 3.156t.687 3.172q.688 1.062 2.031 1.062.625 0 1.219-.265.594-.282 1.219-.86z"/><text x="423" y="764.81" fill="#D9B8FF" font-family="Helvetica" font-size="17" textLength="147">gcp_health_check</text><rect width="227" height="179.273" x="218" y="438.76" fill="#3D176E" rx="2.5" ry="2.5" style="stroke:#000d19;stroke-width:.5"/><circle cx="267.25" cy="458.654" r="11" fill="#ADD1B2" style="stroke:#181818;stroke-width:1"/><path d="M270.219 464.295q-.578.297-1.219.438-.64.156-1.344.156-2.5 0-3.828-1.64-1.312-1.657-1.312-4.782t1.312-4.781q1.328-1.656 3.828-1.656.703 0 1.344.156.656.156 1.219.453v2.719q-.625-.579-1.219-.844-.594-.281-1.219-.281-1.344 0-2.031 1.078-.687 1.062-.687 3.156t.687 3.172q.688 1.062 2.031 1.062.625 0 1.219-.265.594-.281 1.219-.86z"/><text x="292.75" y="464.54" fill="#D9B8FF" font-family="Helvetica" font-size="17" textLength="110">health_check</text><path d="M219 478.549h225" style="stroke:#000d19;stroke-width:.5"/><text x="229" y="500.544" fill="#D9B8FF" font-family="sans-serif" font-size="14" font-weight="bold" textLength="113">check_interval</text><text x="342" y="500.544" fill="#D9B8FF" font-family="sans-serif" font-size="14" textLength="44">: int64</text><text x="229" y="526.841" fill="#D9B8FF" font-family="sans-serif" font-size="14" font-weight="bold" textLength="145">health_check_type</text><text x="374" y="526.841" fill="#D9B8FF" font-family="sans-serif" font-size="14" textLength="48">: string</text><text x="229" y="553.138" fill="#D9B8FF" font-family="sans-serif" font-size="14" font-weight="bold" textLength="141">healthy_threshold</text><text x="370" y="553.138" fill="#D9B8FF" font-family="sans-serif" font-size="14" textLength="44">: int64</text><text x="229" y="579.435" fill="#D9B8FF" font-family="sans-serif" font-size="14" font-weight="bold" textLength="60">timeout</text><text x="289" y="579.435" fill="#D9B8FF" font-family="sans-serif" font-size="14" textLength="44">: int64</text><text x="229" y="605.732" fill="#D9B8FF" font-family="sans-serif" font-size="14" font-weight="bold" textLength="161">unhealthy_threshold</text><text x="390" y="605.732" fill="#D9B8FF" font-family="sans-serif" font-size="14" textLength="44">: int64</text><rect width="227" height="310.758" x="218" y="7" fill="#3D176E" rx="2.5" ry="2.5" style="stroke:#000d19;stroke-width:.5"/><circle cx="286.75" cy="26.895" r="11" fill="#ADD1B2" style="stroke:#181818;stroke-width:1"/><path d="M289.719 32.535q-.578.297-1.219.438-.64.156-1.344.156-2.5 0-3.828-1.64-1.312-1.657-1.312-4.782t1.312-4.781q1.328-1.656 3.828-1.656.703 0 1.344.156.656.156 1.219.453v2.719q-.625-.578-1.219-.844-.594-.281-1.219-.281-1.344 0-2.031 1.078-.687 1.062-.687 3.156t.687 3.172q.688 1.062 2.031 1.062.625 0 1.219-.265.594-.281 1.219-.86z"/><text x="312.25" y="32.78" fill="#D9B8FF" font-family="Helvetica" font-size="17" textLength="71">resource</text><path d="M219 46.789h225" style="stroke:#000d19;stroke-width:.5"/><text x="229" y="68.784" fill="#D9B8FF" font-family="sans-serif" font-size="14" font-weight="bold" textLength="29">age</text><text x="258" y="68.784" fill="#D9B8FF" font-family="sans-serif" font-size="14" textLength="66">: duration</text><text x="229" y="95.081" fill="#D9B8FF" font-family="sans-serif" font-size="14" font-weight="bold" textLength="43">atime</text><text x="272" y="95.081" fill="#D9B8FF" font-family="sans-serif" font-size="14" textLength="70">: datetime</text><text x="229" y="121.378" fill="#D9B8FF" font-family="sans-serif" font-size="14" font-weight="bold" textLength="43">ctime</text><text x="272" y="121.378" fill="#D9B8FF" font-family="sans-serif" font-size="14" textLength="70">: datetime</text><text x="229" y="147.675" fill="#D9B8FF" font-family="sans-serif" font-size="14" font-weight="bold" textLength="14">id</text><text x="243" y="147.675" fill="#D9B8FF" font-family="sans-serif" font-size="14" textLength="48">: string</text><text x="229" y="173.972" fill="#D9B8FF" font-family="sans-serif" font-size="14" font-weight="bold" textLength="33">kind</text><text x="262" y="173.972" fill="#D9B8FF" font-family="sans-serif" font-size="14" textLength="48">: string</text><text x="229" y="200.269" fill="#D9B8FF" font-family="sans-serif" font-size="14" font-weight="bold" textLength="90">last_access</text><text x="319" y="200.269" fill="#D9B8FF" font-family="sans-serif" font-size="14" textLength="66">: duration</text><text x="229" y="226.565" fill="#D9B8FF" font-family="sans-serif" font-size="14" font-weight="bold" textLength="90">last_update</text><text x="319" y="226.565" fill="#D9B8FF" font-family="sans-serif" font-size="14" textLength="66">: duration</text><text x="229" y="252.862" fill="#D9B8FF" font-family="sans-serif" font-size="14" font-weight="bold" textLength="48">mtime</text><text x="277" y="252.862" fill="#D9B8FF" font-family="sans-serif" font-size="14" textLength="70">: datetime</text><text x="229" y="279.159" fill="#D9B8FF" font-family="sans-serif" font-size="14" font-weight="bold" textLength="43">name</text><text x="272" y="279.159" fill="#D9B8FF" font-family="sans-serif" font-size="14" textLength="48">: string</text><text x="229" y="305.456" fill="#D9B8FF" font-family="sans-serif" font-size="14" font-weight="bold" textLength="34">tags</text><text x="263" y="305.456" fill="#D9B8FF" font-family="sans-serif" font-size="14" textLength="171">: dictionary[string, string]</text><g fill="none"><path d="M262.766 633.417c-29.32 44.37-52.236 79.063-69.726 105.523" style="stroke:#ffaf37;stroke-width:2"/><path d="m272.69 618.4-14.93 11.71 10.012 6.615z" style="stroke:#ffaf37;stroke-width:2"/></g><path fill="none" d="M400.668 633.388c29.51 44.37 52.612 79.092 70.202 105.552M390.7 618.4l4.972 18.31 9.992-6.645zm-59.2-282.38v102.24m0-120.24-6 18h12z" style="stroke:#ffaf37;stroke-width:2"/></svg>
